X:1
T: David Kaynor's Jiggidy Jog
C: John Mowad 2018
%D:2018
H: Written in honor of David’s fifth anniversary as director of the Vermont Fiddle Orchestra
S: https://www.natunelist.net/david-kaynors-jiggidy-jog/
M: 6/8
L: 1/8
R: Jig
K: Em
|:\
"Em" EFG BAG | BAG "D" AFD | "Em" EFG BAG | GAc "D" dAF |\
"Em" EFG BAG | Bce "D" d2e | fed "A" ecA |1 "Bm" BAF "Em" E2D :|2 "Bm" BAF "Em" E2c ||
"D" dcd "A" ede | "D" fga "Em" gfe | "D" dcd "A" ede | "D" fec "Bm" B2c |\
"D" dcd "A" ede | "D" fga "G" bag | "D" fed "A" ecA | "Bm" BAF "Em" E2c |]
"D" dcd "A" ede | "D" fga "Em" gfe | "D" dcd "A" ede | "D" fec "Bm" B2c |\
"D" dcd "A" ede | "D" fga "G" bge | "D" afd "Em" gec | "Bm" BAF "Em" E2 |]
